X:1
L:1/8
M:4/4
K:D
|: a3 g f2 e2 | d4 e4 | fefg a2 (gf) | e2 e>e e2 z2 | a3 g f2 e2 | d4 e4 | fefg f2 e2 | 
 d2 d>d d2 z2 :: e3 d c2 d2 | e4 f4 | gfga b2 g2 | e2 e>e e2 z2 | e3 d c2 d2 | e2 e>e e2 f2 | 
 e2 d2 c2 B2 | A2 A>A A2""_D.C."" z2 :|
